svgs/arrows/arrow-circle-broken-down-left.svg

<svg width="24" height="24" viewBox="0 0 24 24" fill="none" xmlns="http://www.w3.org/2000/svg">
<path d="M9.00023 9.00007V15.0001M9.00023 15.0001H15.0002M9.00023 15.0001L19 5.00001M21.6606 9.41051C22.5515 12.7467 21.6884 16.4538 19.0711 19.0711C15.1658 22.9764 8.83418 22.9764 4.92893 19.0711C1.02369 15.1659 1.02369 8.83424 4.92893 4.92899C7.54623 2.3117 11.2534 1.44852 14.5896 2.33944" stroke="#1C1D20" stroke-width="1.5" stroke-linecap="round" stroke-linejoin="round"/>
</svg>

<svg fill="none" xmlns="http://www.w3.org/2000/svg" viewBox="0 0 24 24"><path d="M9 9v6m0 0h6m-6 0L19 5m2.66 4.41a9.996 9.996 0 0 1-2.589 9.661c-3.905 3.905-10.237 3.905-14.142 0-3.905-3.905-3.905-10.237 0-14.142a9.996 9.996 0 0 1 9.66-2.59" stroke="#1C1D20" stroke-width="1.5" stroke-linecap="round" stroke-linejoin="round"/></svg>
